brandFactory_export/3.Masa/Movil Play_3Masa.svg

<?xml version="1.0" encoding="UTF-8"?>
<svg width="24px" height="24px" viewBox="0 0 24 24" version="1.1" xmlns="http://www.w3.org/2000/svg" xmlns:xlink="http://www.w3.org/1999/xlink">
    <title>3.Masa/Movil Play_3Masa</title>
    <g id="Symbols" stroke="none" stroke-width="1" fill="none" fill-rule="evenodd">
        <g id="3.Masa/Movil-Play_3Masa" fill="#5CB615" fill-rule="nonzero">
            <path d="M5.78823529,13.9495798 L5.78823529,9.99327731 L9.24369748,11.9697479 L5.78823529,13.9495798 Z M11.0689076,11.3445378 L5.42184874,8.11428571 C5.19663866,7.98319328 4.91764706,7.98319328 4.69243697,8.11428571 C4.46722689,8.24201681 4.32605042,8.48403361 4.32605042,8.7394958 L4.32605042,15.2 C4.32605042,15.4588235 4.46386555,15.697479 4.69243697,15.8252101 C4.80672269,15.892437 4.93109244,15.9226891 5.05882353,15.9226891 C5.18655462,15.9226891 5.31092437,15.892437 5.42521008,15.8252101 L11.0722689,12.594958 C11.297479,12.4672269 11.4386555,12.2252101 11.4386555,11.9663866 C11.4352941,11.7142857 11.297479,11.4756303 11.0689076,11.3445378 L11.0689076,11.3445378 Z M7.13613445,17.5731092 C10.994958,17.5731092 12.7966387,15.7882353 12.7966387,11.9764706 C12.7966387,8.15462185 10.994958,6.3697479 7.13613445,6.3697479 C3.28739496,6.3697479 1.49579832,8.15462185 1.49579832,11.9764706 C1.49579832,15.7882353 3.28739496,17.5731092 7.13613445,17.5731092 Z M22.5176471,1.1394958 C23.287395,1.91260504 23.6571429,2.98151261 23.6571429,4.4302521 L23.6571429,19.1932773 C23.6571429,20.6487395 23.2773109,21.7310924 22.497479,22.4941176 C21.7277311,23.2571429 20.6453782,23.6235294 19.1831933,23.6235294 L11.7310924,23.6235294 C10.2689076,23.6235294 9.18991597,23.2571429 8.41008403,22.5042017 C7.7210084,21.8184874 7.34789916,20.8941176 7.27058824,19.6672269 L7.27058824,19.0117647 C7.22352941,19.0117647 7.18319328,19.0218487 7.13277311,19.0218487 C2.64201681,19.0218487 0.0302521008,16.7731092 0.0302521008,11.9764706 C0.0302521008,7.1697479 2.64201681,4.9210084 7.13277311,4.9210084 C7.17983193,4.9210084 7.22016807,4.93109244 7.2605042,4.93109244 L7.2605042,4.4302521 C7.2605042,3.00168067 7.6302521,1.9394958 8.41008403,1.15966387 C9.18991597,0.376470588 10.2722689,0 11.7310924,0 L19.1831933,0 C20.6453782,0 21.7378151,0.376470588 22.5176471,1.1394958 Z M14.5243697,19.9294118 C14.7462185,20.1546218 15.0689076,20.2722689 15.4588235,20.2722689 C15.8487395,20.2722689 16.1714286,20.1546218 16.3932773,19.9294118 C16.6117647,19.707563 16.7226891,19.4016807 16.7226891,19.0184874 C16.7226891,18.2319328 16.2487395,17.7613445 15.4588235,17.7613445 C14.6689076,17.7613445 14.194958,18.2319328 14.194958,19.0184874 C14.194958,19.3983193 14.3058824,19.707563 14.5243697,19.9294118 Z" id="Movil-Play_3Masa"></path>
        </g>
    </g>
</svg>

<svg width="24" height="24" viewBox="0 0 24 24" xmlns="http://www.w3.org/2000/svg"><path d="M5.788 13.95V9.993l3.456 1.977-3.456 1.98zm5.28-2.605l-5.646-3.23a.726.726 0 00-.73 0 .725.725 0 00-.366.624V15.2c0 .259.138.497.366.625a.713.713 0 00.367.098c.128 0 .252-.03.366-.098l5.647-3.23a.726.726 0 00.367-.629.73.73 0 00-.37-.621zm-3.932 6.228c3.859 0 5.66-1.785 5.66-5.597 0-3.821-1.801-5.606-5.66-5.606-3.849 0-5.64 1.785-5.64 5.606 0 3.812 1.791 5.597 5.64 5.597zM22.518 1.14c.77.774 1.14 1.843 1.14 3.291v14.763c0 1.456-.38 2.538-1.16 3.301-.77.763-1.853 1.13-3.315 1.13h-7.452c-1.462 0-2.541-.367-3.32-1.12-.69-.686-1.063-1.61-1.14-2.837v-.655c-.047 0-.088.01-.138.01-4.491 0-7.103-2.249-7.103-7.046 0-4.806 2.612-7.055 7.103-7.055.047 0 .087.01.128.01v-.5c0-1.43.37-2.492 1.15-3.271C9.19.376 10.271 0 11.73 0h7.452c1.462 0 2.555.376 3.335 1.14zm-7.994 18.79c.222.226.545.343.935.343s.712-.117.934-.343c.219-.221.33-.527.33-.91 0-.787-.474-1.258-1.264-1.258s-1.264.47-1.264 1.257c0 .38.11.69.33.911z" fill="#5CB615" fill-rule="nonzero"/></svg>
